information_security/img/3vivilogo.svg

<?xml version="1.0" encoding="UTF-8"?> <svg xmlns="http://www.w3.org/2000/svg" width="1322" height="296" viewBox="0 0 1322 296" fill="none"> <path d="M60.0852 146.864C60.071 142.672 60.8865 138.518 62.4846 134.642C64.0826 130.766 66.4318 127.245 69.3968 124.28C72.3617 121.316 75.8839 118.967 79.7605 117.369C83.6371 115.771 87.7915 114.956 91.9845 114.97H216.656C219.888 114.999 223.091 114.366 226.067 113.108C229.044 111.85 231.731 109.994 233.962 107.656C236.325 105.333 238.192 102.554 239.45 99.4878C240.707 96.4215 241.329 93.1319 241.276 89.8183C241.32 86.6379 240.69 83.4843 239.43 80.564C238.169 77.6436 236.306 75.0225 233.962 72.8722C231.697 70.5915 229 68.7856 226.028 67.5604C223.057 66.3352 219.87 65.7153 216.656 65.7369H33.5024C29.2211 65.8801 24.9549 65.1606 20.9575 63.6213C16.9601 62.082 13.3133 59.7543 10.2341 56.7769C7.15495 53.7994 4.70636 50.233 3.03407 46.2899C1.36179 42.3468 0.5 38.1076 0.5 33.8247C0.5 29.5417 1.36179 25.3025 3.03407 21.3594C4.70636 17.4163 7.15495 13.8499 10.2341 10.8724C13.3133 7.89498 16.9601 5.56733 20.9575 4.02803C24.9549 2.48872 29.2211 1.76923 33.5024 1.91237H213.088C225.056 1.83936 236.922 4.10563 248.02 8.58379C258.582 12.8211 268.181 19.1427 276.244 27.1711C284.266 35.2042 290.695 44.6824 295.191 55.1055C299.965 66.0021 302.396 77.7798 302.328 89.6756C302.437 110.685 294.818 131.001 280.919 146.757C294.751 162.554 302.361 182.844 302.328 203.839C302.396 215.735 299.965 227.513 295.191 238.409C290.695 248.832 284.266 258.311 276.244 266.344C268.181 274.372 258.582 280.694 248.02 284.931C236.927 289.426 225.057 291.693 213.088 291.602H33.5024C29.2211 291.746 24.9549 291.026 20.9575 289.487C16.9601 287.947 13.3133 285.62 10.2341 282.642C7.15495 279.665 4.70636 276.099 3.03407 272.155C1.36179 268.212 0.5 263.973 0.5 259.69C0.5 255.407 1.36179 251.168 3.03407 247.225C4.70636 243.282 7.15495 239.715 10.2341 236.738C13.3133 233.76 16.9601 231.433 20.9575 229.894C24.9549 228.354 29.2211 227.635 33.5024 227.778H216.656C219.87 227.8 223.057 227.18 226.028 225.954C229 224.729 231.697 222.923 233.962 220.643C236.306 218.492 238.169 215.871 239.43 212.951C240.69 210.031 241.32 206.877 241.276 203.696C241.324 200.383 240.701 197.095 239.444 194.029C238.187 190.964 236.322 188.184 233.962 185.858C231.711 183.56 229.016 181.742 226.041 180.515C223.066 179.289 219.874 178.679 216.656 178.723H92.1273C87.9316 178.747 83.7729 177.938 79.892 176.344C76.0111 174.749 72.4851 172.401 69.5183 169.434C66.5514 166.468 64.2026 162.942 62.6079 159.062C61.0132 155.182 60.2043 151.024 60.2279 146.829L60.0852 146.864Z" fill="#231F20"></path> <path d="M696.288 146.864C696.183 164.056 693.488 181.134 688.296 197.524C683.232 214.287 675.484 230.118 665.352 244.402C655.607 258.155 643.178 269.794 628.814 278.615C614.309 287.461 597.597 292.024 580.609 291.78H383.04C378.826 291.804 374.649 290.988 370.754 289.38C366.859 287.773 363.323 285.405 360.354 282.416C357.384 279.427 355.04 275.876 353.458 271.971C351.876 268.066 351.088 263.884 351.14 259.671V33.8773C351.112 29.6793 351.917 25.5173 353.51 21.6329C355.102 17.7485 357.45 14.2188 360.418 11.2486C363.385 8.27845 366.913 5.92682 370.796 4.33013C374.679 2.73345 378.841 1.92342 383.04 1.94713H573.972C591.918 1.67289 609.602 6.27203 625.139 15.2544C640.115 24.0365 653.22 35.6729 663.711 49.5034C674.415 63.6176 682.622 79.4611 687.975 96.3462C693.352 112.652 696.157 129.695 696.288 146.864ZM414.939 65.7718V227.955H559.985C572.913 228.462 585.75 225.598 597.236 219.643C606.314 214.704 614.157 207.776 620.179 199.379C625.67 191.476 629.506 182.544 631.455 173.121C635.452 155.844 635.452 137.883 631.455 120.606C629.506 111.183 625.67 102.251 620.179 94.3483C614.147 85.9597 606.306 79.0343 597.236 74.0842C585.745 68.1448 572.911 65.2811 559.985 65.7718H414.939Z" fill="#231F20"></path> <path d="M1201.08 4.87291C1193.85 0.676914 1185.25 -0.477565 1177.18 1.66339C1169.1 3.80435 1162.21 9.06537 1158.01 16.2893L1033.12 231.059C1033.01 231.202 1032.86 231.316 1032.69 231.394C1032.53 231.473 1032.34 231.514 1032.16 231.514C1031.98 231.514 1031.79 231.473 1031.63 231.394C1031.46 231.316 1031.31 231.202 1031.2 231.059L906.311 16.2893C904.223 12.7099 901.451 9.57667 898.153 7.06848C894.854 4.5603 891.093 2.72626 887.086 1.67112C883.078 0.615982 878.902 0.360414 874.796 0.918958C870.69 1.4775 866.734 2.83923 863.154 4.92642C859.574 7.01362 856.44 9.78541 853.932 13.0835C851.423 16.3816 849.589 20.1414 848.534 24.1482C847.478 28.1551 847.223 32.3306 847.781 36.4362C848.34 40.5419 849.702 44.4973 851.789 48.0767L976.675 262.847C982.337 272.52 990.433 280.543 1000.16 286.118C1009.88 291.694 1020.9 294.627 1032.11 294.627C1043.32 294.627 1054.33 291.694 1064.06 286.118C1073.78 280.543 1081.88 272.52 1087.54 262.847L1212.42 48.0767C1214.52 44.4954 1215.88 40.5366 1216.45 36.4267C1217.01 32.3168 1216.76 28.1362 1215.7 24.1239C1214.65 20.1116 1212.82 16.3463 1210.31 13.0431C1207.8 9.73992 1204.66 6.96365 1201.08 4.87291V4.87291Z" fill="#231F20"></path> <path d="M803.44 262.847C803.583 267.128 802.864 271.394 801.324 275.39C799.785 279.387 797.457 283.033 794.479 286.112C791.501 289.191 787.934 291.639 783.99 293.311C780.046 294.983 775.807 295.845 771.523 295.845C767.239 295.845 763 294.983 759.056 293.311C755.112 291.639 751.545 289.191 748.567 286.112C745.589 283.033 743.261 279.387 741.722 275.39C740.182 271.394 739.463 267.128 739.606 262.847V114.435C739.463 110.154 740.182 105.889 741.722 101.892C743.261 97.895 745.589 94.2488 748.567 91.1701C751.545 88.0914 755.112 85.6432 759.056 83.9712C763 82.2992 767.239 81.4375 771.523 81.4375C775.807 81.4375 780.046 82.2992 783.99 83.9712C787.934 85.6432 791.501 88.0914 794.479 91.1701C797.457 94.2488 799.785 97.895 801.324 101.892C802.864 105.889 803.583 110.154 803.44 114.435V262.847Z" fill="#231F20"></path> <path d="M749.989 1.01953H775.573C782.954 1.01953 790.033 3.95137 795.252 9.17001C800.472 14.3887 803.404 21.4666 803.404 28.8469V46.0071C803.404 48.7605 802.31 51.4012 800.363 53.3481C798.416 55.2951 795.775 56.3889 793.021 56.3889H767.437C760.056 56.3889 752.977 53.457 747.757 48.2384C742.538 43.0198 739.605 35.9418 739.605 28.5615V11.4013C739.605 10.0379 739.874 8.68791 740.396 7.42834C740.918 6.16877 741.683 5.02433 742.647 4.0603C743.611 3.09626 744.756 2.33153 746.015 1.8098C747.275 1.28807 748.625 1.01953 749.989 1.01953V1.01953Z" fill="#EF3D33"></path> <path d="M1321.29 262.846C1321.29 271.305 1317.93 279.418 1311.94 285.399C1305.96 291.38 1297.85 294.741 1289.39 294.741C1280.93 294.741 1272.81 291.38 1266.83 285.399C1260.85 279.418 1257.49 271.305 1257.49 262.846V114.434C1257.49 105.975 1260.85 97.8621 1266.83 91.8807C1272.81 85.8993 1280.93 82.5391 1289.39 82.5391C1297.85 82.5391 1305.96 85.8993 1311.94 91.8807C1317.93 97.8621 1321.29 105.975 1321.29 114.434V262.846Z" fill="#231F20"></path> <path d="M1285.32 1.01953H1310.9C1313.66 1.01953 1316.3 2.11334 1318.25 4.0603C1320.19 6.00725 1321.29 8.64788 1321.29 11.4013V28.5615C1321.29 35.9418 1318.36 43.0198 1313.14 48.2384C1307.92 53.457 1300.84 56.3889 1293.46 56.3889H1267.87C1265.12 56.3889 1262.48 55.2951 1260.53 53.3481C1258.58 51.4012 1257.49 48.7605 1257.49 46.0071V28.8469C1257.49 21.4666 1260.42 14.3887 1265.64 9.17001C1270.86 3.95137 1277.94 1.01953 1285.32 1.01953V1.01953Z" fill="#EF3D33"></path> </svg>

<svg xmlns="http://www.w3.org/2000/svg" width="1322" height="296" fill="none"><path d="M60.085 146.864a31.782 31.782 0 0 1 19.675-29.495 31.796 31.796 0 0 1 12.224-2.399h124.672a23.625 23.625 0 0 0 17.306-7.314 24.462 24.462 0 0 0 7.314-17.838 22.573 22.573 0 0 0-7.314-16.946 24.158 24.158 0 0 0-17.306-7.135H33.502A31.938 31.938 0 0 1 3.034 46.29 31.926 31.926 0 0 1 20.958 4.028a31.94 31.94 0 0 1 12.544-2.116h179.586a91.853 91.853 0 0 1 34.932 6.672 84.693 84.693 0 0 1 28.224 18.587 89.954 89.954 0 0 1 18.947 27.934 84.936 84.936 0 0 1 7.137 34.57 85.614 85.614 0 0 1-21.409 57.082 86.444 86.444 0 0 1 21.409 57.082 84.933 84.933 0 0 1-7.137 34.57 89.957 89.957 0 0 1-18.947 27.935 84.694 84.694 0 0 1-28.224 18.587 91.171 91.171 0 0 1-34.932 6.671H33.502a31.929 31.929 0 0 1-30.468-19.447 31.924 31.924 0 0 1 17.924-42.261 31.93 31.93 0 0 1 12.544-2.116h183.154a24.164 24.164 0 0 0 17.306-7.135 22.573 22.573 0 0 0 7.314-16.947 24.545 24.545 0 0 0-7.314-17.838 23.781 23.781 0 0 0-17.306-7.135H92.127a31.727 31.727 0 0 1-22.609-9.289 31.713 31.713 0 0 1-9.29-22.605l-.143.035ZM696.288 146.864a171.218 171.218 0 0 1-7.992 50.66 161.997 161.997 0 0 1-22.944 46.878 124.866 124.866 0 0 1-36.538 34.213 90.098 90.098 0 0 1-48.205 13.165H383.04a31.724 31.724 0 0 1-31.9-32.109V33.877A31.712 31.712 0 0 1 370.796 4.33a31.725 31.725 0 0 1 12.244-2.383h190.932a99.203 99.203 0 0 1 51.167 13.307 132.607 132.607 0 0 1 38.572 34.25 155.077 155.077 0 0 1 24.264 46.842 165.336 165.336 0 0 1 8.313 50.518ZM414.939 65.772v162.183h145.046a74.58 74.58 0 0 0 37.251-8.312 68.546 68.546 0 0 0 22.943-20.264 71.347 71.347 0 0 0 11.276-26.258 116.495 116.495 0 0 0 0-52.515 71.343 71.343 0 0 0-11.276-26.258 68.933 68.933 0 0 0-22.943-20.264 74.939 74.939 0 0 0-37.251-8.312H414.939ZM1201.08 4.873a31.522 31.522 0 0 0-23.9-3.21 31.506 31.506 0 0 0-19.17 14.626l-124.89 214.77a1.14 1.14 0 0 1-.43.335 1.224 1.224 0 0 1-1.06 0 1.14 1.14 0 0 1-.43-.335L906.311 16.289a31.568 31.568 0 0 0-19.225-14.618 31.563 31.563 0 0 0-33.154 11.413 31.538 31.538 0 0 0-6.151 23.352 31.565 31.565 0 0 0 4.008 11.64l124.886 214.771a64.206 64.206 0 0 0 23.485 23.271 64.246 64.246 0 0 0 63.9 0 64.23 64.23 0 0 0 23.48-23.271l124.88-214.77c2.1-3.582 3.46-7.54 4.03-11.65.56-4.11.31-8.29-.75-12.303a31.487 31.487 0 0 0-5.39-11.08 31.624 31.624 0 0 0-9.23-8.171ZM803.44 262.847a31.917 31.917 0 0 1-8.961 23.265 31.93 31.93 0 0 1-22.956 9.733 31.939 31.939 0 0 1-29.801-20.455 31.917 31.917 0 0 1-2.116-12.543V114.435a31.92 31.92 0 0 1 8.961-23.265 31.934 31.934 0 0 1 35.423-7.199 31.934 31.934 0 0 1 19.45 30.464v148.412Z" fill="#231F20"/><path d="M749.989 1.02h25.584a27.832 27.832 0 0 1 27.831 27.827v17.16a10.382 10.382 0 0 1-10.383 10.382h-25.584a27.827 27.827 0 0 1-27.832-27.827v-17.16a10.377 10.377 0 0 1 3.042-7.342 10.387 10.387 0 0 1 7.342-3.04Z" fill="#EF3D33"/><path d="M1321.29 262.846c0 8.459-3.36 16.572-9.35 22.553a31.886 31.886 0 0 1-22.55 9.342c-8.46 0-16.58-3.361-22.56-9.342a31.898 31.898 0 0 1-9.34-22.553V114.434a31.9 31.9 0 0 1 9.34-22.553 31.907 31.907 0 0 1 22.56-9.342c8.46 0 16.57 3.36 22.55 9.342a31.867 31.867 0 0 1 9.35 22.553v148.412Z" fill="#231F20"/><path d="M1285.32 1.02h25.58c2.76 0 5.4 1.093 7.35 3.04a10.41 10.41 0 0 1 3.04 7.341v17.16c0 7.38-2.93 14.459-8.15 19.677a27.838 27.838 0 0 1-19.68 8.15h-25.59a10.39 10.39 0 0 1-7.34-3.04 10.368 10.368 0 0 1-3.04-7.34V28.846c0-7.38 2.93-14.458 8.15-19.677a27.837 27.837 0 0 1 19.68-8.15Z" fill="#EF3D33"/></svg>
